X: 125
T:Missa Missus est Gabriel Angelus / Agnus Dei
N: Derived from Jos1002e-Missa_Missus_est_Gabriel_Angelus-Agnus.krn
C: Josquin des Prez
%%abc-version 2.0
%%abcx-abcm2ps-target-version 5.9.1 (29 Sep 2008)
%%abc-creator hum2abc beta
%%abcx-conversion-date 2019/02/12 16:15:44
%%abc-edited-by Jesse Rodin
%%abc-edited-by Will Watson 07/08/2011
%%abcx-initial-encoding-date 2011/07/08/
%%humdrum-veritas 2728804926
%%humdrum-veritas-data 1865485902
%%linebreak <none>
%%barnumbers 0
L: 1/4
M: 2/1
Q: 1/2=120
%%staves [1 2 3 4]
V: 1 clef=treble
V: 2 clef=treble-8
V: 3 clef=treble-8
V: 4 clef=bass
K: F
[V:1] G,8 | 
[V:2] z8 | 
[V:3] z8 | 
[V:4] z8 | 
[V:1] G,4D4 | 
[V:2] z8 | 
[V:3] z8 | 
[V:4] z8 | 
[V:1] D4z2G2- | 
[V:2] G8 | 
[V:3] z8 | 
[V:4] z8 | 
[V:1] G2FEF2B,2- | 
[V:2] G4d4 | 
[V:3] z8 | 
[V:4] z8 | 
[V:1] B,2B4AG | 
[V:2] d4z2g2- | 
[V:3] G8 | 
[V:4] z8 | 
[V:1] B4A2B2- | 
[V:2] g2fef4 | 
[V:3] G4d4 | 
[V:4] z8 | 
[V:1] BAG4FE | 
[V:2] g4G4 | 
[V:3] d2B4AG | 
[V:4] G,,8 | 
[V:1] D3EFGA2- | 
[V:2] z2d4cB | 
[V:3] B4A2d2- | 
[V:4] G,,4D,4 | 
[V:1] AGG4^F2 | 
[V:2] A2d3cA2 | 
[V:3] dcB2A4 | 
[V:4] D,8 | 
[V:1] G2B4AG | 
[V:2] B3cd2e2 | 
[V:3] G4z2G2 | 
[V:4] z8 | 
[V:1] A4D4- | 
[V:2] fedcB3c | 
[V:3] F4G4 | 
[V:4] z8 | 
[V:1] D8 | 
[V:2] def4ef | 
[V:3] B8 | 
[V:4] z8 | 
[V:1] z2F4EF | 
[V:2] g2f2d4 | 
[V:3] B4B4 | 
[V:4] z8 | 
[V:1] G2F2D4 | 
[V:2] z2f4ef | 
[V:3] B8 | 
[V:4] z8 | 
[V:1] z2F4EF | 
[V:2] g2f2d4- | 
[V:3] B4z2B2- | 
[V:4] z8 | 
[V:1] G2F2D4 | 
[V:2] d4f4 | 
[V:3] B2AGF4 | 
[V:4] D,8 | 
[V:1] G4F4- | 
[V:2] e4d3c/B/ | 
[V:3] c3BA2d2- | 
[V:4] C,4D,4 | 
[V:1] F2EDA4- | 
[V:2] A2c4Bc | 
[V:3] d2cBA4 | 
[V:4] F,4F,4- | 
[V:1] A8- | 
[V:2] d2c2A4 | 
[V:3] z2c4Bc | 
[V:4] F,2F,2F,4 | 
[V:1] A8- | 
[V:2] z2c4Bc | 
[V:3] d2c2A4 | 
[V:4] F,8- | 
[V:1] A4z4 | 
[V:2] d2c2A4 | 
[V:3] z2c4Bc | 
[V:4] F,8 | 
[V:1] F8 | 
[V:2] B3cdef2- | 
[V:3] d3cB2A2 | 
[V:4] z8 | 
[V:1] G4A4 | 
[V:2] f2e2fedc | 
[V:3] G4F4 | 
[V:4] z8 | 
[V:1] B4G4 | 
[V:2] BAd3Bc2 | 
[V:3] G4E4 | 
[V:4] z8 | 
[V:1] A8 | 
[V:2] FGABc2d2- | 
[V:3] DEFGA2F2 | 
[V:4] z8 | 
[V:1] D8 | 
[V:2] d2Bcdef2- | 
[V:3] B6A2 | 
[V:4] B,,8 | 
[V:1] z4D4 | 
[V:2] f2e2fedc | 
[V:3] G2A3FB2- | 
[V:4] C,4D,4 | 
[V:1] G6FE | 
[V:2] B2_e3dcB | 
[V:3] BGG4A2- | 
[V:4] _E,4C,4 | 
[V:1] F2G4^F2 | 
[V:2] A2d4cA | 
[V:3] AFB2A4 | 
[V:4] D,8 | 
[V:1] G8 ||  
[V:2] B8 ||  
[V:3] G8 ||  
[V:4] G,,8 ||  
[V:1]  [K:F] [K:clef=treble][M:2/1]z8 | 
[V:2]  [K:F] [K:clef=treble-8][M:2/1]z8 | 
[V:3]  [K:F] [K:clef=treble-8][M:2/1]z8 | 
[V:4]  [K:F] [K:clef=bass][M:2/1]D,8 | 
[V:1] z8 | 
[V:2] z8 | 
[V:3] z8 | 
[V:4] D,4D,4- | 
[V:1] z8 | 
[V:2] z8 | 
[V:3] A8 | 
[V:4] D,2C,B,,C,2D,2- | 
[V:1] z8 | 
[V:2] z8 | 
[V:3] A4A4- | 
[V:4] D,E,F,4E,D, | 
[V:1] z8 | 
[V:2] z8 | 
[V:3] A2GFG2A2 | 
[V:4] C,2D,2E,2D,2- | 
[V:1] z8 | 
[V:2] z8 | 
[V:3] B6G2 | 
[V:4] D,2G,,2G,,4 | 
[V:1] z8 | 
[V:2] z8 | 
[V:3] A6D2 | 
[V:4] z2D,3E,F,2- | 
[V:1] z8 | 
[V:2] z8 | 
[V:3] D8- | 
[V:4] F,2B,,2B,,2F,2- | 
[V:1] z8 | 
[V:2] z8 | 
[V:3] D4z2A2- | 
[V:4] F,2E,D,C,2D,2 | 
[V:1] z8 | 
[V:2] z8 | 
[V:3] A2G2B2A2- | 
[V:4] E,4D,4 | 
[V:1] z8 | 
[V:2] z8 | 
[V:3] A2GFE4 | 
[V:4] z2D,4C,2 | 
[V:1] z8 | 
[V:2] z8 | 
[V:3] z2A2A2A2 | 
[V:4] E,2D,4C,B,, | 
[V:1] z8 | 
[V:2] z8 | 
[V:3] c2BAG2A2 | 
[V:4] A,,4z2D,2 | 
[V:1] z8 | 
[V:2] z8 | 
[V:3] B4A2c2- | 
[V:4] D,2D,2F,2E,D, | 
[V:1] z8 | 
[V:2] z8 | 
[V:3] c2BAG3A | 
[V:4] C,2D,2E,4 | 
[V:1] z8 | 
[V:2] z8 | 
[V:3] B3A/G/A2B2- | 
[V:4] D,8- | 
[V:1] z8 | 
[V:2] z8 | 
[V:3] BA/G/A2D4 | 
[V:4] D,4z2D,2 | 
[V:1] z8 | 
[V:2] z8 | 
[V:3] z2A2A2G2 | 
[V:4] D,2C,2D,2G,,2 | 
[V:1] z8 | 
[V:2] z8 | 
[V:3] A2D2A4 | 
[V:4] D,4z2D,2 | 
[V:1] z8 | 
[V:2] z8 | 
[V:3] z2A2A2G2 | 
[V:4] D,2C,2D,2G,,2 | 
[V:1] z8 | 
[V:2] z8 | 
[V:3] A2D2A2B2- | 
[V:4] D,8- | 
[V:1] z8 | 
[V:2] z8 | 
[V:3] B2AGB2A2 | 
[V:4] D,8- | 
[V:1] z8 ||  
[V:2] z8 ||  
[V:3] A8 ||  
[V:4] D,8 ||  
[V:1]  [K:F] [K:clef=treble][M:2/1]z4A4- | 
[V:2]  [K:F] [K:clef=treble-8][M:2/1]d8 | 
[V:3]  [K:F] [K:clef=treble-8][M:2/1]z8 | 
[V:4]  [K:F] [K:clef=bass][M:2/1]z8 | 
[V:1] A4A4 | 
[V:2] d4c4- | 
[V:3] z8 | 
[V:4] z8 | 
[V:1] G6FE | 
[V:2] c2BAG3A | 
[V:3] z8 | 
[V:4] z8 | 
[V:1] D2F2E4 | 
[V:2] Bcd4^c2 | 
[V:3] z8 | 
[V:4] z8 | 
[V:1] D8 | 
[V:2] d4z4 | 
[V:3] z4A4- | 
[V:4] D,8 | 
[V:1] z8 | 
[V:2] z8 | 
[V:3] A4A4 | 
[V:4] D,4C,3D, | 
[V:1] z8 | 
[V:2] z8 | 
[V:3] G3ABcd2- | 
[V:4] E,F,G,3F,D,2 | 
[V:1] G4F2B2- | 
[V:2] z8 | 
[V:3] d2^c2d4 | 
[V:4] E,4D,4 | 
[V:1] BAGFG4 | 
[V:2] B8 | 
[V:3] z2d4G2 | 
[V:4] G,6F,E, | 
[V:1] F4z2B2 | 
[V:2] F4G2G2- | 
[V:3] A2B2c2B2 | 
[V:4] D,4C,2G,2- | 
[V:1] B4F4 | 
[V:2] GABcd4 | 
[V:3] G4A4 | 
[V:4] G,2F,E,D,4 | 
[V:1] G2G3ABc | 
[V:2] _e4d4- | 
[V:3] z2B2B4 | 
[V:4] C,2G,4F,E, | 
[V:1] d4G2B2- | 
[V:2] d4z2d2 | 
[V:3] F4G2G2- | 
[V:4] D,4C,2G,2- | 
[V:1] B2AGF4 | 
[V:2] d6A2 | 
[V:3] GABcd4 | 
[V:4] G,2F,E,D,4 | 
[V:1] G8 | 
[V:2] c2B4AG | 
[V:3] _e4d4- | 
[V:4] C,2G,4F,E, | 
[V:1] F8- | 
[V:2] A4B4 | 
[V:3] d8 | 
[V:4] D,8 | 
[V:1] F8 | 
[V:2] A8 | 
[V:3] z4A4 | 
[V:4] z4D,4 | 
[V:1] z8 | 
[V:2] z8 | 
[V:3] c3BA2G2 | 
[V:4] _E,3D,C,2B,,2 | 
[V:1] z4z2B2 | 
[V:2] z4z2d2 | 
[V:3] G2^F2G4 | 
[V:4] A,,4G,,4 | 
[V:1] c3BA2G2- | 
[V:2] _e3dc2B2 | 
[V:3] z8 | 
[V:4] z8 | 
[V:1] G2^F2G4 | 
[V:2] A4G4 | 
[V:3] z2d2c3B | 
[V:4] D,4_E,3D, | 
[V:1] z4z2A2 | 
[V:2] z4c4 | 
[V:3] A2G2G2^F2 | 
[V:4] C,2B,,2A,,4 | 
[V:1] B6A2 | 
[V:2] B4G4- | 
[V:3] G8- | 
[V:4] G,,2G,4F,2 | 
[V:1] G2F2_E4 | 
[V:2] G2ABc4 | 
[V:3] G8- | 
[V:4] _E,2D,2C,3B,, | 
[V:1] D8 |]  
[V:2] B8 |]  
[V:3] G8 |]  
[V:4] G,,8 |]  



